packages/verification-vue-component/src/assets/img/verified_icon.svg

<svg width="16" height="16" viewBox="0 0 16 16" fill="none" xmlns="http://www.w3.org/2000/svg">
<path fill-rule="evenodd" clip-rule="evenodd" d="M13.6577 13.6566C12.8703 14.444 11.7097 14.7272 10.6481 14.3909C10.1352 15.3795 9.11431 16 8.0006 16C6.88689 16 5.86596 15.3795 5.3531 14.3909C4.29072 14.7283 3.12889 14.4451 2.3409 13.6567C1.55292 12.8683 1.27031 11.7063 1.6082 10.6441C0.620098 10.1311 0 9.11042 0 7.99708C0 6.88374 0.620098 5.86308 1.6082 5.35005C1.27333 4.28879 1.55713 3.12936 2.34432 2.34277C3.13152 1.55617 4.29115 1.27324 5.35216 1.60891C5.86531 0.620385 6.88635 0 8.00013 0C9.11391 0 10.135 0.620385 10.6481 1.60891C11.7097 1.27263 12.8703 1.5558 13.6577 2.34325C14.4452 3.13069 14.7283 4.29124 14.3921 5.35287C15.3802 5.8659 16.0003 6.88656 16.0003 7.9999C16.0003 9.11325 15.3802 10.1339 14.3921 10.6469C14.7283 11.7086 14.4452 12.8691 13.6577 13.6566ZM4.4014 8.32864C4.33668 8.5754 4.41015 8.83788 4.59356 9.01519L6.21425 10.6387C6.50233 10.9282 6.90167 11.0788 7.30919 11.0515C7.7167 11.0243 8.09244 10.8219 8.3394 10.4966L11.8518 5.90934C12.0889 5.59955 12.0299 5.15626 11.7201 4.91924C11.4103 4.68221 10.967 4.7412 10.73 5.051L7.21847 9.64295L5.59214 8.01756C5.415 7.83398 5.15259 7.76026 4.90576 7.82475C4.65894 7.88923 4.46611 8.08187 4.4014 8.32864Z" fill="#0669F2"/>
</svg>

<svg xmlns="http://www.w3.org/2000/svg" width="16" height="16" viewBox="0 0 16 16" fill="none" xmlns:v="https://vecta.io/nano">
    <path fill-rule="evenodd"
          d="M13.658 13.657c-.787.787-1.948 1.071-3.01.734C10.135 15.38 9.114 16 8.001 16s-2.135-.62-2.647-1.609c-1.062.337-2.224.054-3.012-.734s-1.071-1.95-.733-3.013C.62 10.131 0 9.11 0 7.997S.62 5.863 1.608 5.35c-.335-1.061-.051-2.221.736-3.007s1.947-1.07 3.008-.734C5.865.62 6.886 0 8 0s2.135.62 2.648 1.609c1.062-.336 2.222-.053 3.01.734s1.071 1.948.734 3.01C15.38 5.866 16 6.887 16 8s-.62 2.134-1.608 2.647c.336 1.062.053 2.222-.734 3.01zM4.401 8.329c-.065.247.009.509.192.687l1.621 1.624a1.41 1.41 0 0 0 2.125-.142l3.512-4.587c.237-.31.178-.753-.132-.99s-.753-.178-.99.132L7.218 9.643 5.592 8.018c-.177-.184-.44-.257-.686-.193s-.44.257-.504.504z"
          fill="#0669f2" />
</svg>
